X:1
T:Ach bleib bei uns, Herr Jesu Christ
T:Ach bleib bei uns, Herr Jesu Christ
T:Johann Sebastian Bach
C:Johann Sebastian Bach
%%score 1 2 3 4
L:1/8
M:4/4
K:Ab
V:1 treble nm="Soprano" snm="S."
V:2 treble nm="Alto" snm="A."
V:3 bass nm="Tenor" snm="T."
V:4 bass nm="Bajo" snm="B."
V:1
 c2 | cd e2 c2 A2 | B2 c2 !fermata!d2 c2 | B2 A2 (A3 B) | c2 c2 BA B2 | !fermata!A6 c2 | %6
w: Ach|ble- ib bei uns, Herr|Je- su Christ, weil|es nun A- *|* bend wor- * den|ist; dein|
 B2 c2 A2 F2 | G2 A2 !fermata!B2 c2 | A2 A2 (A3 B) | c2 c2 BA B2 | !fermata!A6 |] %11
w: gött lich Wort, das|hel- le Licht, lass|ja bei uns- *|* aus- lö- * schen|nicht!|
V:2
 A2 | A2 B2 A2 A2 | _GF E2 F2 E2 | ED C2 (F4 | E2) E2 E3 D | C6 A2 | G2 G2 F_E =D2 | E3 =D E2 =E2 | %8
 C2 F2 (_E2 F)G | A2 E2 E3 D | C6 |] %11
V:3
 E2 | E2 E2 E2 ED | D2 A,2 A,2 A,2 | =G,2 A,2 (D4 | C)B, A,2 A,2 G,2 | E,6 E2 | ED C2 C2 B,2 | %7
 B,2 A,2 G,2 G,2 | A,2 D2 (CD)CB, | A,2 A,2 A,2 G,2 | E,6 |] %11
V:4
 A,,2 | A,2 G,2 A,2 F,2 | _G,2 A,2 D,2 A,,2 | E,2 F,E, (D,E,)F,G, | A,2 C,D, E,2 E,2 | %5
 !fermata!A,,6 A,,2 | E,2 =E,2 F,2 B,A, | G,2 F,2 !fermata!_E,2 C,2 | F,C, F,G, (A,B,)A,G, | %9
 F,2 C,D, E,2 E,2 | !fermata!A,,6 |] %11

